images_sukapura_svg/cmd/32/datasort.svg

<svg viewBox="0 0 32 32" xmlns="http://www.w3.org/2000/svg" xmlns:xlink="http://www.w3.org/1999/xlink"><linearGradient id="a" gradientTransform="translate(-25 9)" gradientUnits="userSpaceOnUse" x1="14" x2="13.79661" y1="22" y2="2.135593"><stop offset="0" stop-color="#0040dd"/><stop offset="1" stop-color="#0a84ff"/></linearGradient><linearGradient id="b" gradientUnits="userSpaceOnUse" x1="22" x2="22" xlink:href="#a" y1="27" y2="5"/><linearGradient id="c" gradientUnits="userSpaceOnUse" x1="10" x2="10" xlink:href="#a" y1="27" y2="5"/><path d="m9 26.999807c-.554 0-1-.446-1-1v-14h-3a1.0001 1.0001 0 0 1 -.707031-1.707031l5-5a1.0001 1.0001 0 0 1 1.414062 0l5 5a1.0001 1.0001 0 0 1 -.707031 1.707031h-3v14c0 .554-.446 1-1 1z" fill="url(#c)"/><path d="m21 5c-.554 0-1 .446-1 1v14h-3a1.0001 1.0001 0 0 0 -.707031 1.707031l5 5a1.0001 1.0001 0 0 0 1.414062 0l5-5a1.0001 1.0001 0 0 0 -.707031-1.707031h-3v-14c0-.554-.446-1-1-1z" fill="url(#b)"/></svg>

<?xml version="1.0" encoding="UTF-8" standalone="no"?>
<svg
   xmlns:dc="http://purl.org/dc/elements/1.1/"
   xmlns:cc="http://creativecommons.org/ns#"
   xmlns:rdf="http://www.w3.org/1999/02/22-rdf-syntax-ns#"
   xmlns:svg="http://www.w3.org/2000/svg"
   xmlns="http://www.w3.org/2000/svg"
   xmlns:xlink="http://www.w3.org/1999/xlink"
   xmlns:sodipodi="http://sodipodi.sourceforge.net/DTD/sodipodi-0.dtd"
   xmlns:inkscape="http://www.inkscape.org/namespaces/inkscape"
   viewBox="0 0 32 32"
   version="1.1"
   id="svg12"
   sodipodi:docname="datasort.svg"
   inkscape:export-filename="/home/rizmut/Dokumen/Rizmut/Github/libreoffice-style-sukapura/images_sukapura/cmd/32/sortdescending.png"
   inkscape:export-xdpi="96"
   inkscape:export-ydpi="96"
   inkscape:version="0.92.3 (unknown)">
  <metadata
     id="metadata18">
    <rdf:RDF>
      <cc:Work
         rdf:about="">
        <dc:format>image/svg+xml</dc:format>
        <dc:type
           rdf:resource="http://purl.org/dc/dcmitype/StillImage" />
        <dc:title></dc:title>
      </cc:Work>
    </rdf:RDF>
  </metadata>
  <defs
     id="defs16">
    <linearGradient
       gradientTransform="translate(-25,9)"
       id="a"
       gradientUnits="userSpaceOnUse"
       x1="14"
       x2="13.79661"
       y1="22"
       y2="2.1355929">
      <stop
         offset="0"
         stop-color="#0040dd"
         id="stop2799" />
      <stop
         offset="1"
         stop-color="#0a84ff"
         id="stop2801" />
    </linearGradient>
    <linearGradient
       inkscape:collect="always"
       xlink:href="#a"
       id="linearGradient1527"
       x1="6"
       y1="12"
       x2="6"
       y2="3"
       gradientUnits="userSpaceOnUse"
       gradientTransform="matrix(1.0116585,0,0,1.0116585,1.3778072,0.04673107)" />
    <linearGradient
       inkscape:collect="always"
       xlink:href="#a"
       id="linearGradient1579"
       x1="9"
       y1="15"
       x2="9"
       y2="3"
       gradientUnits="userSpaceOnUse"
       gradientTransform="matrix(1.0383704,0,0,1.0383704,-0.21488706,-0.35190741)" />
    <linearGradient
       inkscape:collect="always"
       xlink:href="#a"
       id="linearGradient2228"
       x1="22"
       y1="27"
       x2="22"
       y2="5"
       gradientUnits="userSpaceOnUse" />
    <linearGradient
       inkscape:collect="always"
       xlink:href="#a"
       id="linearGradient2236"
       x1="10"
       y1="27"
       x2="10"
       y2="5"
       gradientUnits="userSpaceOnUse" />
  </defs>
  <sodipodi:namedview
     pagecolor="#ffffff"
     bordercolor="#666666"
     borderopacity="1"
     objecttolerance="10"
     gridtolerance="10"
     guidetolerance="10"
     inkscape:pageopacity="0"
     inkscape:pageshadow="2"
     inkscape:window-width="1366"
     inkscape:window-height="699"
     id="namedview14"
     showgrid="true"
     inkscape:zoom="11.313709"
     inkscape:cx="4.0984618"
     inkscape:cy="14.429462"
     inkscape:window-x="0"
     inkscape:window-y="0"
     inkscape:window-maximized="1"
     inkscape:current-layer="svg12">
    <inkscape:grid
       type="xygrid"
       id="grid828"
       spacingx="0.5"
       spacingy="0.5"
       empspacing="2" />
  </sodipodi:namedview>
  <path
     id="path2210"
     d="m 9,26.999807 c -0.554,0 -1,-0.446 -1,-1 v -14 H 5 A 1.0001,1.0001 0 0 1 4.292969,10.292776 l 5,-5 a 1.0001,1.0001 0 0 1 1.414062,0 l 5,5 A 1.0001,1.0001 0 0 1 15,11.999807 h -3 v 14 c 0,0.554 -0.446,1 -1,1 z"
     style="opacity:1;fill:url(#linearGradient2236);fill-opacity:1;stroke:none;stroke-width:1;stroke-linecap:round;stroke-linejoin:round;stroke-miterlimit:4;stroke-dasharray:none;stroke-opacity:0"
     inkscape:connector-curvature="0" />
  <g
     aria-label="a"
     style="font-style:normal;font-weight:normal;font-size:18.2510376px;line-height:1.25;font-family:sans-serif;letter-spacing:0px;word-spacing:0px;fill:#69696e;fill-opacity:1;stroke:none;stroke-width:0.45627588"
     id="text842"
     transform="translate(-16.985987,-1.56347)" />
  <path
     style="opacity:1;fill:url(#linearGradient2228);fill-opacity:1;stroke:none;stroke-width:1;stroke-linecap:round;stroke-linejoin:round;stroke-miterlimit:4;stroke-dasharray:none;stroke-opacity:0"
     d="M 21 5 C 20.446 5 20 5.446 20 6 L 20 20 L 17 20 A 1.0001 1.0001 0 0 0 16.292969 21.707031 L 21.292969 26.707031 A 1.0001 1.0001 0 0 0 22.707031 26.707031 L 27.707031 21.707031 A 1.0001 1.0001 0 0 0 27 20 L 24 20 L 24 6 C 24 5.446 23.554 5 23 5 L 21 5 z "
     id="rect834" />
  <g
     aria-label="z"
     style="font-style:normal;font-weight:normal;font-size:22.72365189px;line-height:1.25;font-family:sans-serif;letter-spacing:0px;word-spacing:0px;fill:url(#linearGradient1579);fill-opacity:1;stroke:none;stroke-width:0.56809127"
     id="text838"
     transform="translate(-16.985987,-1.56347)" />
</svg>
